build/img/Logo.svg

<svg width="75" height="32" viewBox="0 0 75 32" fill="none" xmlns="http://www.w3.org/2000/svg">
<path fill-rule="evenodd" clip-rule="evenodd" d="M22.1194 12.5475V25.095H25.2409H28.3623V12.5475V0H25.2409H22.1194V12.5475ZM31.8909 12.5475V25.095H35.0124H38.1339V12.5475V0H35.0124H31.8909V12.5475ZM46.5482 3.82156C45.242 4.19236 43.9443 4.55381 43.6643 4.62485L43.1554 4.75394V6.30983V7.8656H41.7303H40.3053V10.6123V13.359H41.7303H43.1554L43.1577 16.6364C43.1602 20.2007 43.2688 21.0284 43.9048 22.3322C44.3368 23.2176 45.4167 24.2334 46.3116 24.5961C47.6473 25.1373 50.0983 25.3576 52.3641 25.1397L53.1983 25.0594V22.4554V19.8513H51.9725C50.6235 19.8513 49.9711 19.6741 49.6196 19.2124C49.4311 18.9648 49.3983 18.5097 49.3983 16.1403V13.359H51.2983H53.1983V10.6123V7.8656H51.2983H49.3983V5.49343C49.3983 3.31254 49.3791 3.12227 49.1608 3.13438C49.0302 3.1415 47.8545 3.45075 46.5482 3.82156ZM7.93709 7.49242C5.95401 7.82527 4.26 8.66202 2.7636 10.0476C1.87384 10.8715 1.54012 11.2945 1.03023 12.2447C0.257332 13.6853 0.00313624 14.7485 1.47746e-05 16.554C-0.00731388 20.8804 2.71216 24.0991 7.33831 25.2393C8.81408 25.6031 11.4585 25.6294 13.0943 25.2966C14.7343 24.9629 16.4417 24.1543 17.5673 23.1782L18.5095 22.3611L18.1768 22.1274C17.805 21.8659 14.413 19.7014 14.1423 19.5529C14.0385 19.4959 13.713 19.6137 13.3307 19.8467C12.3584 20.4391 11.4221 20.6434 10.0168 20.5697C8.53098 20.4918 7.5085 20.0804 6.90931 19.3195C6.69081 19.042 6.51207 18.7672 6.51207 18.7089C6.51207 18.6505 9.37974 18.6028 12.8846 18.6028H19.257L19.365 18.1346C19.5545 17.3128 19.4717 14.859 19.2251 13.9833C18.8257 12.565 18.0162 11.2341 16.8732 10.1164C15.0107 8.29496 13.0388 7.49317 10.2443 7.42063C9.34853 7.39741 8.3103 7.42974 7.93709 7.49242ZM54.5555 7.9264C54.5555 7.96223 56.2044 11.6617 58.2198 16.1476C60.2352 20.6333 61.8841 24.389 61.8841 24.4932C61.8841 24.5976 61.6967 24.9211 61.4676 25.212C60.8961 25.9377 59.8989 26.3469 58.4838 26.436L57.4055 26.5041V29.252V32L58.9323 31.9241C62.6268 31.7406 65.1427 30.4626 67.048 27.8019C68.0515 26.4007 68.2521 25.9229 71.9058 16.2306C73.5495 11.8702 74.9355 8.20419 74.986 8.08409C75.0718 7.87946 74.8569 7.8656 71.6114 7.8656C68.4279 7.8656 68.1396 7.88345 68.0743 8.08409C68.0353 8.20419 67.4137 10.3252 66.6932 12.7972C65.9727 15.2692 65.3407 17.3636 65.2887 17.4513C65.2363 17.5397 64.379 15.452 63.3657 12.7694L61.5372 7.92802L58.0464 7.89469C56.1264 7.87633 54.5555 7.89069 54.5555 7.9264ZM11.231 12.4258C12.1129 12.6666 12.6786 13.1037 13.1009 13.8705C13.2839 14.2026 13.4336 14.5043 13.4336 14.541C13.4336 14.5776 11.8416 14.6075 9.89587 14.6075H6.35803L6.45059 14.3266C6.98816 12.6936 9.11537 11.8477 11.231 12.4258Z" fill="#1F2128"/>
</svg>

<svg width="75" height="32" fill="none" xmlns="http://www.w3.org/2000/svg"><path fill-rule="evenodd" clip-rule="evenodd" d="M22.12 12.547v12.548h6.242V0H22.12v12.547Zm9.77 0v12.548h6.244V0H31.89v12.547Zm14.658-8.725a216 216 0 0 1-2.884.803l-.509.129v3.112h-2.85v5.493h2.85l.003 3.277c.002 3.565.11 4.392.747 5.696.432.886 1.512 1.901 2.407 2.264 1.335.541 3.786.762 6.052.544l.834-.08v-5.21h-1.226c-1.349 0-2-.177-2.352-.639-.189-.247-.222-.702-.222-3.072V13.36h3.8V7.866h-3.8V5.493c0-2.18-.019-2.37-.237-2.359-.13.008-1.306.317-2.613.688Zm-38.61 3.67c-1.984.333-3.678 1.17-5.174 2.556-.89.823-1.224 1.246-1.734 2.197C.257 13.685.003 14.749 0 16.554c-.007 4.326 2.712 7.545 7.338 8.685 1.476.364 4.12.39 5.756.058 1.64-.334 3.348-1.143 4.473-2.119l.942-.817-.332-.234c-.372-.261-3.764-2.426-4.035-2.574-.103-.057-.429.06-.811.294-.973.592-1.909.796-3.314.723-1.486-.078-2.508-.49-3.108-1.25-.218-.278-.397-.553-.397-.611 0-.058 2.868-.106 6.373-.106h6.372l.108-.468c.19-.822.107-3.276-.14-4.152-.4-1.418-1.209-2.749-2.352-3.867-1.862-1.821-3.834-2.623-6.629-2.695-.895-.024-1.934.009-2.307.071Zm46.617.434c0 .036 1.65 3.736 3.665 8.222 2.015 4.485 3.664 8.241 3.664 8.345 0 .105-.187.428-.416.719-.572.726-1.57 1.135-2.984 1.224l-1.078.068V32l1.526-.076c3.695-.183 6.21-1.461 8.116-4.122 1.004-1.401 1.204-1.88 4.858-11.571 1.643-4.36 3.03-8.027 3.08-8.147.086-.205-.13-.218-3.375-.218-3.183 0-3.471.017-3.537.218-.039.12-.66 2.241-1.38 4.713-.721 2.472-1.353 4.567-1.405 4.654-.053.089-.91-1.999-1.923-4.682l-1.829-4.841-3.49-.033c-1.92-.019-3.491-.004-3.491.031Zm-43.324 4.5c.882.24 1.448.678 1.87 1.444.183.333.333.634.333.671 0 .037-1.592.066-3.538.066H6.358l.093-.28c.537-1.633 2.664-2.48 4.78-1.901Z" fill="#1F2128"/></svg>
